X:143
T: Lányok ülnek a toronyba...
M: 4/4
L: 1/4
K: Eb
e/d/ccc/d/ | e/d/e/d/dd | 
e/d/ccc/d/ | ed/c/BB | 
e/d/ccc/d/ | ed/c/B G | 
F/_E/F/G/ A/G/A/B/ | cB/A/GG | 

